svgs/light/refrigerator.svg

<svg xmlns="http://www.w3.org/2000/svg" viewBox="0 0 384 512"><!-- Font Awesome Pro 6.0.0-alpha2 by @fontawesome - https://fontawesome.com License - https://fontawesome.com/license (Commercial License) --><path d="M288 0H96C42.981 0 0 42.981 0 96V448C0 483.346 28.654 512 64 512H320C355.346 512 384 483.346 384 448V96C384 42.981 341.019 0 288 0ZM352 448C352 465.645 337.645 480 320 480H64C46.355 480 32 465.645 32 448V192H256V368C256 376.836 263.164 384 272 384S288 376.836 288 368V192H352V448ZM352 160H288V112C288 103.162 280.836 96 272 96S256 103.162 256 112V160H32V96C32 60.654 60.654 32 96 32H288C323.346 32 352 60.654 352 96V160Z"/></svg>

<svg xmlns="http://www.w3.org/2000/svg" viewBox="0 0 384 512"><!--! Font Awesome Pro 6.0.0-alpha3 by @fontawesome - https://fontawesome.com License - https://fontawesome.com/license (Commercial License) --><path d="M288 0H96C42.98 0 0 42.98 0 96v352c0 35.35 28.65 64 64 64h256c35.35 0 64-28.65 64-64V96C384 42.98 341 0 288 0zM352 448c0 17.64-14.36 32-32 32H64c-17.64 0-32-14.36-32-32V192h224v176c0 8.836 7.164 16 16 16s16-7.164 16-16V192h64V448zM352 160h-64V112C288 103.2 280.8 96 272 96S256 103.2 256 112V160H32V96c0-35.35 28.65-64 64-64h192c35.35 0 64 28.65 64 64V160z"/></svg>
